img/avatar-1.svg

<svg xmlns="http://www.w3.org/2000/svg" preserveAspectRatio="xMidYMid" width="33.625" height="33.657"><g fill-rule="evenodd"><path d="M16.812-.003c9.292 0 16.825 7.532 16.825 16.824 0 9.292-7.533 16.825-16.825 16.825-9.292 0-16.824-7.533-16.824-16.825C-.012 7.529 7.52-.003 16.812-.003z" fill="#343434"/><path d="M19.327 15.567l6.905-6.629h-6.718l-4.144 4.067V8.938H9.53v15.999h5.84v-5.144l.422-.405 4.106 5.549h6.633l-7.204-9.37z" fill="#ffe853"/></g></svg>

<svg xmlns="http://www.w3.org/2000/svg" xmlns:xlink="http://www.w3.org/1999/xlink" preserveAspectRatio="xMidYMid" width="33.625" height="33.657" viewBox="0 0 33.625 33.657">
  <defs>
    <style>
      .cls-1 {
        fill: #343434;
      }

      .cls-1, .cls-2 {
        fill-rule: evenodd;
      }

      .cls-2 {
        fill: #ffe853;
      }
    </style>
  </defs>
  <g>
    <path d="M16.812,-0.003 C26.104,-0.003 33.637,7.529 33.637,16.821 C33.637,26.113 26.104,33.646 16.812,33.646 C7.520,33.646 -0.012,26.113 -0.012,16.821 C-0.012,7.529 7.520,-0.003 16.812,-0.003 Z" class="cls-1"/>
    <path d="M19.327,15.567 L26.232,8.938 L19.514,8.938 L15.370,13.005 L15.370,8.938 L9.530,8.938 L9.530,24.937 L15.370,24.937 L15.370,19.793 L15.792,19.388 L19.898,24.937 L26.531,24.937 L19.327,15.567 Z" class="cls-2"/>
  </g>
</svg>
